symbols/web/format_paint/materialsymbolssharp/format_paint_wght200gradN25fill1_48px.svg

<svg xmlns="http://www.w3.org/2000/svg" height="48" width="48"><path d="M20.4 42.35V29.1H10.35V12.3q0-1.9 1.35-3.275T15 7.65h22.65V29.1H27.6v13.25ZM11.85 21h24.3V9.2H32.6V17h-1.5V9.2h-4.25v4.05H25.3V9.2H15q-1.35 0-2.25.925-.9.925-.9 2.175Z"/></svg>

<svg xmlns="http://www.w3.org/2000/svg" height="48" width="48"><path d="M20.4 42.35V29.1H10.35V12.3Q10.35 10.4 11.7 9.025Q13.05 7.65 15 7.65H37.65V29.1H27.6V42.35ZM11.85 21H36.15V9.2H32.6V17H31.1V9.2H26.85V13.25H25.3V9.2H15Q13.65 9.2 12.75 10.125Q11.85 11.05 11.85 12.3Z"/></svg>
